X:1
T:Hymne à la nuit, d\'après le duo des Prêtresses de Diane
T:Hymne à la nuit, d'après le duo des Prêtresses de Diane
T:harmonisation de Joseph Noyon (1888-1962)
T:Édouard Sciortino (1893-1979)
T:tiré de Hippolyte et Aricie, Acte I, scène 3 Thème original de Jean-Philippe Rameau
C:harmonisation de Joseph Noyon (1888-1962)
Z:tiré de Hippolyte et Aricie, Acte I, scène 3
Z:Thème original de Jean-Philippe Rameau
%%score ( 1 2 ) ( 3 4 )
L:1/8
Q:1/4=54
M:3/4
K:Eb
V:1 treble nm="Alto"
V:2 treble 
V:3 bass nm="Bass"
V:4 bass 
V:1
 G2 | F6 | B2 G2 E2 | A4 GF | G4 E2 | e2 ed cB | =A4 d2 | B3 B B=A | B6 | F3 F GA | G4 FE | %11
w: Ô|Nuit!|Qu'il est pro-|fond ton si-|len- ce,|Quand les é- toi- les|d'or scin-|til- lent dans les|cieux.|L'om- bre qui t'es-|corte est si|
w: Ô|Nuit!|Viens ap- por-|ter à la|ter- re|le calme en- chan- te-|ment de|ton mys- tè- ~-|re|L'om- bre qui t'es-|corte est si|
w: Ô|Nuit!|Toi qui fais|naî- tre les|son- ges,|Cal- me le mal- heur-|eux qui|souffre en son ré-|duit|Sois com- pa- tis-|san- te pour|
 F2 F2 B2 | c3 B Ac | B4 AG | A2 BA GF | G2 E2 B2 | c3 c de | d6 | B2 G2 E2 | A4 GF | (G2 F4) | %21
w: dou- ce. Si|doux est le con-|cert de tes|voix chan- tant l'es- pé-|ran- ce. Si|grand est ton pou-|voir|Trans- for- mant|tout en \-|rê- *|
w: dou- ce Est-|il u- ne beau-|té aus- si|bel- le \- que le|rê- ve Est-|il de vé- ri-|té|plus dou- ce|que l'es- pé-|ran- *|
w: lui; \- Pro-|lon- ge son som-|meil, prends \-|soin de \- sa \-|pei- ne; Dis-|si- pe sa dou-|leur,|Ô Nuit lim-|pide et se-|rei- *|
 E6 |] %22
w: ve|
w: ce|
w: ne.|
V:2
 E2 | D6 | E2 E2 E2 | F4 ED | E4 E2 | E2 EF GG | F4 F2 | G3 G GE | D6 | D3 D EF | E4 DC | %11
 D2 D2 E2 | E3 E EE | E4 EE | F2 GF ED | E2 E2 E2 | E3 E FG | F6 | F2 ED C2 | F4 E2 | E4 D2 | E6 |] %22
V:3
 B,2 | B,6 | B,2 B,2 C2 | C4 B,B, | B,4 G,2 | C2 C=B, CC | C4 D2 | D3 D CC | B,6 | B,3 B, B,B, | %10
 B,4 B,B, | B,2 B,2 G,2 | A,3 G, F,A, | G,4 CC | C2 CC B,B, | B,2 G,2 G,2 | A,3 A, A,B, | B,6 | %18
 B,2 B,2 C2 | C4 C2 | B,4 A,2 | G,6 |] %22
V:4
 E,2 | B,,6 | G,2 E,2 A,2 | F,4 B,,B,, | E,4 E,2 | C,2 C,D, E,=E, | F,4 D,2 | G,3 F, E,F, | B,,6 | %9
 B,,3 B,, B,,B,, | B,,4 B,,B,, | B,,2 B,,2 G,,2 | A,,3 G,, F,,A,, | G,,4 C,C, | F,2 F,F, B,,B,, | %15
 E,2 E,2 G,2 | A,3 G, F,E, | B,,6 | D,2 E,2 A,2 | F,4 G,A, | B,4 B,,2 | E,6 |] %22

